X: 40801
T: Tra Va Mee Ghuilley Aegagh As Reeagh
R: waltz
M: 3/4
K: Edorian
E2|E2 B2 B2|B2 A2 Bc|d2 B2 G2|F4 F2|
G2 F2 G2|A2 G2 A2|BA G2 A2|B4 E2|
GA B2 d2|c2 A2 cd|e2 B2 G2|F4 GA|
B2 e2 d2|c2 B2 EF|G2 AG F2|E4||

